X: 374
T: Bir Gören Bir Dem Unutmaz
C: Ali İçinger
O: Turkey
F: http://compmusic.upf.edu/node/140
N: evic--sarki--agiraksak--bir_goren--ali_icinger
N: makam= evic
N: form= sarki
N: usul= agiraksak = 9/4
M: 9/4
L: 1/16
K: C _1/4B ^f ^c 
Q: 1/4=66
%%MIDI tuningsystem comma53
gf^ef g2a2 f3g e3f d3=e =c2d2 B2c2 A2B2 A2G2  | \
w:  ARANAĞME  | 
F3G A2B2 =cde=f edcB A3B AGGF F4 d3^e ^f4  | 
w:   | 
gf^ef g2a2 f3g e3f d3=e =c2d2 B2c2 A2B2 A2G2  | \
w:  ARANAĞME  | 
F3G A2B2 =cde=f edcB A3B AGGF F4 ^EFGE F4  | 
w:   | 
z8 z2fg f2^e2 fg(3gfe d4 g2fe d2c^B c2d2  | \
w:  Bir  *  *  gö ren  *  *  *  *  *  bir   | 
^ef2e d2(3c^Bc z2a2 g2f2 e2d2 a2gf f6fe eddc  | 
w:  *  *  *  *  *  *  *  dem  *  u nut *  *  *  *  maz   | 
d8 z2=c'b a2g2 f3^e d4 ^ga2g f2e2 f2g2  | \
w:  *  sen  *  *  gi bi  *  *  bir   | 
ab^gf ^edc^B c2a2 =g2f2 e2d2 g2gf f6fg fede  | 
w:  *  *  *  *  *  *  *  *  *  meh *  *  *  *  *  ve *  şi   SAZ  | 
f8 z2f2 a2a2 a8 d'8 =c'2b2  | a3/2b/ag f^efg ab=c'b a2ag g3f f3/2g/f=e e6c2 d2cd  | 
w:  *  Gön *  lü mün  yıl  |  *  *  *  *  *  *  *  *  *  *  lar  *  *  da  *  geç *  *  *  *  *  se   | 
e8 z2A2 c2e2 g2f2 e2d2 c2dc dcB^A B4  | \
w:  *  sön *  mez  as *  *  *  la   | 
AB2A GFGA Bd=c4BA A3G AGGF F6fg f^ede  | 
w:  *  *  *  *  *  *  *  *  *  â *  *  *  *  *  *  te *  şi   SAZ  | 
f8 z2f2 a2a2 a8 d'8 =c'2b2  | a3/2b/ag f^efg ab=c'b a2ag g3f f3/2g/f=e e6c2 d2cd  | 
w:  *  Gön *  lü mün  yıl  |  *  *  *  *  *  *  *  *  *  *  lar  *  *  da  *  geç *  *  *  *  *  se   | 
e8 z2A2 c2e2 g2f2 e2d2 c2dc dcB^A B4  | \
w:  *  sön *  mez  as *  *  *  la   | 
AB2A GFGA Bd=c4BA A3G AGGF F6^cd cB^AB  | 
w:  *  *  *  *  *  *  *  *  *  â *  *  *  *  *  *  te *  şi   SAZ  | 
c8 z2B4c2 c8 e2^d2 e2f2 ^e2d2  | e2^de c6B4c2 c3B A4 B2f2 e2=d2 c2B2  | 
w:  *  Can  ya kan  ruh  |  *  *  *  *  sâ rı nın  *  *  hiç   | 
A3G F4 z2f4f2 f3^e d4 ^ga2g f2e2 f2g2  | \
w:  *  *  *  bir  gü zel *  *  de   | 
ab^gf ^edcB c2a2 =g2f2 e2d2 g2gf f6fg fede  | 
w:  *  *  *  *  *  *  *  *  *  yok  *  *  *  *  *  e *  şi   SAZ  | 
f8 z2f2 a2a2 a8 d'8 =c'2b2  | a3/2b/ag f^efg ab=c'b a2ag g3f f3/2g/f=e e6c2 d2cd  | 
w:  *  Gön *  lü mün  yıl  |  *  *  *  *  *  *  *  *  *  *  lar  *  *  da  *  geç *  *  *  *  *  se   | 
e8 z2A2 c2e2 g2f2 e2d2 c2dc dcB^A B4  | \
w:  *  sön *  mez  as *  *  *  la   | 
AB2A GFGA Bd=c4BA A3G AGGF F6fg f^ede  | 
w:  *  *  *  *  *  *  *  *  *  â *  *  *  *  *  *  te *  şi   SAZ  | 
f8 z2f2 a2a2 a8 d'8 =c'2b2  | a3/2b/ag f^efg ab=c'b a2ag g3f f3/2g/f=e e6c2 d2cd  | 
w:  *  Gön *  lü mün  yıl  |  *  *  *  *  *  *  *  *  *  *  lar  *  *  da  *  geç *  *  *  *  *  se   | 
e8 z2A2 c2e2 g2f2 e2d2 c2dc dcB^A B4  | \
w:  *  sön *  mez  as *  *  *  la   | 
AB2A GFGA Bd=c4BA A3G AGGF F6|
w:  *  *  *  *  *  *  *  *  *  â *  *  *  *  *  *  te *  şi    | 


